X:186
T: Der Oelberg - Ruf
N: A0544
O: Europa, Mitteleuropa, Deutschland
N: Beuttner 1602. No. 22.
R: Romanze, Ballade, Lied, religioeses Lied
M: 3/2
L: 1/2
K: F
F | G2A | B2c | BGA | B2
B | c2c | f2e | dcd | f2
c | Bcd | ccB | ABG | F2

